X:0781
T:Mr Bushby Maitland's Reel.
M:C|
L:1/8
Q:1/2=104
I: (1) :| (2) || ||
Z:Jack Campin * www.campin.me.uk * 2009
K:D
A| FDAF  d2TdA| d2Tdf eEEA|[1 FDAF d2dB|cdeg fdd:|\
                           [2 FDAF dABG|FAdg fdd||
g|Tf>ede fgaf | gfed  cAeg|  Tfede fgaf|ecdB Addg|
   fdfg  fgaf |Tg>fed cAeg|   fdgb afge|fdec dDD|]

